!!!OTL: EIN SCHAEFERMAEDCHEN WEIDETE
!!!ARE: Europa, Mitteleuropa, Deutschland, Rheinland, Nassau
!!!SCT: B0145
!!!YEM: Copyright 1995, estate of Helmut Schaffrath.
**kern
*ICvox
*Ivox
*M6/8
*k[f#]
*G:
{8d
=1
4g
8g
8g
8f#
8g
=2
4a
8a
4a}
{8a
=3
4b
8b
8dd
8cc
8a
=4
4g
4.r}
{8d
=5
4g
8g
8g
8f#
8g
=6
4a
8a
4a}
{8a
=7
4b
8b
8dd
8cc
8a
=8
4g
4.r}
{8dd
=9
4cc#
8a
8a
8b
8cc#
=10
4dd
8a
4ff#}
{8dd
=11
4cc#
8a
8a
8b
8cc#
=12
8ee
8dd
8dd
4dd}
{8dd
=13
4b
4.r
8dd
=14
4cc
4.r}
{8dd
=15
4b
8dd
4b
8dd
=16
4b
4.r}
==
!!!AGN: Ballade, Romanze
!!!ONB: ESAC (Essen Associative Code) Database: BOEHME
!!!AMT: compound duple
!!!AIN: vox
!!!EED: Helmut Schaffrath
!!!EEV: 1.0
*-
